Catalina-dark/actions/16/format-text-blockquote.svg

<svg width="16" height="16" version="1.1" viewBox="0 0 16 16" xmlns="http://www.w3.org/2000/svg">
<defs>
<style id="current-color-scheme" type="text/css">.ColorScheme-Text { color:#5c616c; } .ColorScheme-Highlight { color:#5294e2; }</style>
</defs>
<path class="ColorScheme-Text" d="m6 5c-1.1046 0-2 0.89543-2 2v2.5312h0.0019531a1.5 1.5 0 0 0 1.498 1.4688 1.5 1.5 0 0 0 1.5-1.5 1.5 1.5 0 0 0-1.5-1.5 1.5 1.5 0 0 0-0.03125 0.0019531v-0.0019531h-0.46875v-1c0-0.55228 0.44772-1 1-1v-1zm4 0c-1.1046 0-2 0.89543-2 2v2.5312h0.0019531a1.5 1.5 0 0 0 1.498 1.4688 1.5 1.5 0 0 0 1.5-1.5 1.5 1.5 0 0 0-1.5-1.5 1.5 1.5 0 0 0-0.03125 0.0019531v-0.0019531h-0.46875v-1c0-0.55228 0.44772-1 1-1v-1z" fill="#dedede" fill-opacity=".85098"/>
</svg>

<?xml version="1.0" encoding="UTF-8" standalone="no"?>
<svg
   xmlns:dc="http://purl.org/dc/elements/1.1/"
   xmlns:cc="http://creativecommons.org/ns#"
   xmlns:rdf="http://www.w3.org/1999/02/22-rdf-syntax-ns#"
   xmlns:svg="http://www.w3.org/2000/svg"
   xmlns="http://www.w3.org/2000/svg"
   xmlns:sodipodi="http://sodipodi.sourceforge.net/DTD/sodipodi-0.dtd"
   xmlns:inkscape="http://www.inkscape.org/namespaces/inkscape"
   width="16"
   height="16"
   viewBox="0 0 16 16"
   version="1.1"
   id="svg7"
   sodipodi:docname="format-text-blockquote.svg"
   inkscape:version="0.92.4 5da689c313, 2019-01-14">
  <metadata
     id="metadata11">
    <rdf:RDF>
      <cc:Work
         rdf:about="">
        <dc:format>image/svg+xml</dc:format>
        <dc:type
           rdf:resource="http://purl.org/dc/dcmitype/StillImage" />
      </cc:Work>
    </rdf:RDF>
  </metadata>
  <sodipodi:namedview
     pagecolor="#ffffff"
     bordercolor="#666666"
     borderopacity="1"
     objecttolerance="10"
     gridtolerance="10"
     guidetolerance="10"
     inkscape:pageopacity="0"
     inkscape:pageshadow="2"
     inkscape:window-width="640"
     inkscape:window-height="480"
     id="namedview9"
     showgrid="false"
     inkscape:zoom="14.75"
     inkscape:cx="6.8135593"
     inkscape:cy="8"
     inkscape:window-x="0"
     inkscape:window-y="26"
     inkscape:window-maximized="0"
     inkscape:current-layer="svg7" />
  <defs
     id="defs3">
    <style
       id="current-color-scheme"
       type="text/css">
   .ColorScheme-Text { color:#5c616c; } .ColorScheme-Highlight { color:#5294e2; }
  </style>
  </defs>
  <path
     style="fill:#f1f6f8;fill-opacity:0.8509804"
     class="ColorScheme-Text"
     d="M 6 5 C 4.8954 5 4 5.89543 4 7 L 4 9.53125 L 4.0019531 9.53125 A 1.5 1.5 0 0 0 5.5 11 A 1.5 1.5 0 0 0 7 9.5 A 1.5 1.5 0 0 0 5.5 8 A 1.5 1.5 0 0 0 5.46875 8.0019531 L 5.46875 8 L 5 8 L 5 7 C 5 6.44772 5.44772 6 6 6 L 6 5 z M 10 5 C 8.8954 5 8 5.89543 8 7 L 8 9.53125 L 8.0019531 9.53125 A 1.5 1.5 0 0 0 9.5 11 A 1.5 1.5 0 0 0 11 9.5 A 1.5 1.5 0 0 0 9.5 8 A 1.5 1.5 0 0 0 9.46875 8.0019531 L 9.46875 8 L 9 8 L 9 7 C 9 6.44772 9.44772 6 10 6 L 10 5 z"
     id="path5" />
</svg>
